icons/glyphs/glyph-qupzilla.svg

<?xml version="1.0" encoding="UTF-8" standalone="no"?><svg height="16" viewBox="0 0 4.2333332 4.2333332" width="16" xmlns="http://www.w3.org/2000/svg"><sodipodi:namedview/><metadata><rdf:RDF><cc:Work><dc:format>image/svg+xml</dc:format><dc:type/><dc:title/></cc:Work></rdf:RDF></metadata><path d="m2.1166666.00000009a2.1167231 2.1167231 0 0 0 -2.1166665 2.11666641 2.1167231 2.1167231 0 0 0 2.1166665 2.1166666 2.1167231 2.1167231 0 0 0 2.1166665-2.1166666 2.1167231 2.1167231 0 0 0 -2.1166665-2.11666641zm-.7399426.90396202c1.1943832.030037 1.5403659.91061809 2.4036385.73796349-1.1387522.9593964-1.8821741-.2860293-3.3088375 1.4717215-.1774122-.2890364-.271516-.621299-.2721288-.9603669.0004054-.4253183.1480398-.837606.4178413-1.16644259.2880453-.064841.5383044-.088438.7594865-.0828755zm.6187217 1.35445879c.026444-.0008892.052429-.0006194.07768.0007422.7829715.042261 1.0141107.8020375 1.6666646.8020375-.9434261.6014158-1.7281739-.8102556-3.1779684.1073672.5110918-.6264088 1.0369652-.8967872 1.4336238-.9101469z" fill="#d0d0d0"/></svg>

<?xml version="1.0" encoding="UTF-8" standalone="no"?>
<!-- Created with Inkscape (http://www.inkscape.org/) -->

<svg
   xmlns:dc="http://purl.org/dc/elements/1.1/"
   xmlns:cc="http://creativecommons.org/ns#"
   xmlns:rdf="http://www.w3.org/1999/02/22-rdf-syntax-ns#"
   xmlns:svg="http://www.w3.org/2000/svg"
   xmlns="http://www.w3.org/2000/svg"
   xmlns:sodipodi="http://sodipodi.sourceforge.net/DTD/sodipodi-0.dtd"
   xmlns:inkscape="http://www.inkscape.org/namespaces/inkscape"
   width="16"
   height="16"
   viewBox="0 0 4.2333332 4.2333332"
   version="1.1"
   id="svg8"
   inkscape:version="0.92+devel (f96dc7e339, 2017-07-28, custom)"
   sodipodi:docname="glyph-qupzilla.svg">
  <defs
     id="defs2">
    <linearGradient
       id="b"
       y1="12.08"
       x1="12.521"
       y2="24.797001"
       x2="22.282"
       gradientUnits="userSpaceOnUse"
       gradientTransform="matrix(0.26458333,0,0,0.26458333,-3.2331426,-3.6252677)">
      <stop
         stop-color="#fcfcfc"
         id="stop7" />
      <stop
         offset="1"
         stop-color="#eff1f1"
         id="stop9" />
    </linearGradient>
    <linearGradient
       id="c"
       y1="25.538"
       x1="14.576"
       y2="44"
       x2="28.742001"
       gradientUnits="userSpaceOnUse"
       gradientTransform="matrix(0.92383604,0,0,0.92383604,-10.759042,-10.527669)">
      <stop
         stop-color="#4ce0c6"
         id="stop12" />
      <stop
         offset=".3"
         stop-color="#7fe9d6"
         id="stop14" />
      <stop
         offset="1"
         stop-color="#31bfa6"
         id="stop16" />
    </linearGradient>
  </defs>
  <sodipodi:namedview
     id="base"
     pagecolor="#002466"
     bordercolor="#ffffff"
     borderopacity="0.38039216"
     inkscape:pageopacity="1"
     inkscape:pageshadow="2"
     inkscape:zoom="25.75"
     inkscape:cx="8"
     inkscape:cy="8"
     inkscape:document-units="px"
     inkscape:current-layer="svg8"
     inkscape:document-rotation="0"
     showgrid="false"
     inkscape:showpageshadow="false"
     borderlayer="true"
     inkscape:window-width="1920"
     inkscape:window-height="1051"
     inkscape:window-x="0"
     inkscape:window-y="0"
     inkscape:window-maximized="1"
     units="px" />
  <metadata
     id="metadata5">
    <rdf:RDF>
      <cc:Work
         rdf:about="">
        <dc:format>image/svg+xml</dc:format>
        <dc:type
           rdf:resource="http://purl.org/dc/dcmitype/StillImage" />
        <dc:title></dc:title>
      </cc:Work>
    </rdf:RDF>
  </metadata>
  <path
     style="font-variation-settings:normal;vector-effect:none;fill:#d0d0d0;stroke:none;stroke-width:0.50270832"
     d="M 2.1166666,8.9999999e-8 A 2.1167231,2.1167231 0 0 0 9.9999999e-8,2.1166665 2.1167231,2.1167231 0 0 0 2.1166666,4.2333331 2.1167231,2.1167231 0 0 0 4.2333331,2.1166665 2.1167231,2.1167231 0 0 0 2.1166666,8.9999999e-8 Z M 1.376724,0.90396211 C 2.5711072,0.93399911 2.9170899,1.8145802 3.7803625,1.6419256 2.6416103,2.601322 1.8981884,1.3558963 0.471525,3.1136471 0.2941128,2.8246107 0.200009,2.4923481 0.1993962,2.1532802 0.1998016,1.7279619 0.347436,1.3156742 0.6172375,0.98683761 0.9052828,0.92199661 1.1555419,0.89839961 1.376724,0.90396211 Z M 1.9954457,2.2584209 c 0.026444,-8.892e-4 0.052429,-6.194e-4 0.07768,7.422e-4 0.7829715,0.042261 1.0141107,0.8020375 1.6666646,0.8020375 C 2.7963642,3.6626164 2.0116164,2.250945 0.5618219,3.1685678 1.0729137,2.542159 1.5987871,2.2717806 1.9954457,2.2584209 Z"
     id="path821"
     inkscape:connector-curvature="0"
     inkscape:label="#" />
</svg>
